X:1
T:There’s a Friend That Abides
T:There’s a Friend That Abides
T:Hubert Platt Main
T:Frances Jane (Fanny) Crosby, 1901
T:Public Domain Courtesy of the Cyber Hymnal™
T:Public Domain Courtesy of the Cyber Hymnal™
C:Hubert Platt Main
Z:Public Domain
Z:Courtesy of the Cyber Hymnal™
%%score ( 1 2 ) ( 3 4 )
L:1/8
Q:1/4=105
M:4/4
K:Ab
V:1 treble 
V:2 treble 
V:3 bass 
V:4 bass 
V:1
 [CA][DB] | [Ec]2 [CB][CA] [CE]2 [CF]>[CA] | [DG]6 [EB]>[Ec] | [Ed]2 [Dc][DB] [DE]2 [DB]2 | %4
w: 1.~There’s a|friend that a- bides ev- er-|more, And that|friend is the Lord, my|
w: 2.~There’s a|friend that a- bides ev- er-|more, And I|praise Him with loud ac-|
w: 3.~There’s a|love that is strong as the|hills That en-|cir- cle His throne a-|
w: 4.~There’s a|friend that a- bides ev- er-|more, And a|friend that I long to|
 c6 [Ec][Ed] | [Ee]2 [Ed][Ec] [DF]2 [FB][Fc] | [Fd]2 [Dc][DB] [CE]2 [EA][=EG] | %7
w: king; Of the|peace I re- ceived, When His|Word I be- lieved, In the|
w: claim; For the|life that is mine Through His|mer- cy di- vine; Still I|
w: bove; How it|speaks to my soul When the|dark bil- lows roll, And my|
w: see; O, the|song that will break, When to|rap- ture I wake, And in|
 F2 [=DB][DA] [EG]2 [_Dc]>[DB] | [CA]6 ||"^Refrain" [Ec]2 | [EB]2 [EB][EB] [EB]2 [Ec][Ed] | %11
w: full- ness of joy I will|sing.|||
w: sing in my joy, “Bless His|name!”|O|come, quick- ly come! He is|
w: heart sings for joy, “God is|love!”|||
w: glo- ry with Him I shall|be!|||
 [Ed][Ec] [Ec]>[EB] [Ec]2 [_Gc]2 | [GB]2 [Ee][Ge] [Ae]2 [F=d]2 | e6 [EA][DB] | %14
w: |||
w: call- ing you to- day, O|come to that friend so|true; He will|
w: |||
w: |||
 [Cc][Ec][DB][CA] [CE]2 [CF]>[EA] | [DA][DG] [DG]>[DF] [DG]2 [DB][Fc] | %16
w: ||
w: be your faith- ful guide, More than|all the world be- side, And re-|
w: ||
w: ||
 [Fe][Fd][DF][=Dc] [Ec]2 [_DB]2 | A4- [CA]2 |] %18
w: ||
w: mem- ber He has died for|you. *|
w: ||
w: ||
V:2
 x2 | x8 | x8 | x8 | (C2 E4) x2 | x8 | x8 | F2 x6 | x6 || x2 | x8 | x8 | x8 | (G2 B>A G2) x2 | x8 | %15
 x8 | x8 | CED>C x2 |] %18
V:3
 [A,,E,][A,,E,] | [A,,A,]2 [A,,E,][A,,E,] [A,,A,]2 [A,,A,]>[A,,A,] | %2
w: ~ ~|~ ~ ~ ~ ~ ~|
 [E,B,]2 [E,B,]>[E,B,] [E,B,]2 [E,G,]>[E,A,] | [E,B,]2 [E,G,][E,G,] [E,G,]2 [E,G,]2 | %4
w: ~ ev- er- more ~ ~|~ ~ ~ ~ ~|
 A,6 A,[A,B,] | [A,C]2 [F,=A,][F,A,] [B,,B,]2 [D,B,][C,A,] | %6
w: ~ my king;|~ ~ ~ ~ ~ ~|
 [B,,B,]2 [E,G,][E,G,] A,2 [C,A,][C,B,] | [D,A,]2 [B,,A,][B,,B,] [E,B,]2 [E,G,]>[E,G,] | %8
w: ~ ~ ~ ~ ~ ~|~ ~ ~ ~ ~ ~|
 [A,,A,]6 || [A,,A,]2 | [E,G,]2 [E,G,][E,G,] [E,G,]2 [E,A,][E,B,] | %11
w: ~|~|~ ~ ~ ~ ~ ~|
 [A,,B,][A,,B,] [C,A,]>[E,G,] A,2 [=A,E]2 | [B,E]2 [G,B,][E,B,] [A,,C]2 [B,,B,]2 | %13
w: ~ ~ ~ ~ ~ ~|~ ~ ~ ~ ~|
 B,6 [C,A,][B,,G,] | [A,,A,][A,,A,][A,,E,][A,,E,] [A,,A,]2 [A,,A,]>[C,A,] | %15
w: ~ ~ ~|~ ~ ~ ~ ~ ~ ~|
 [B,,B,][B,,B,] [B,,B,]>[B,,B,] [E,B,]2 [D,F,][C,=A,] | %16
w: ~ ~ ~ ~ ~ ~ ~|
 [B,,B,][B,,B,][D,B,][F,A,] [E,A,]2 [E,G,]2 | (A,_G,[D,F,]>[D,_F,] [A,,E,]2) |] %18
w: ~ ~ ~ ~ ~ ~|~ * * * *|
V:4
 x2 | x8 | x8 | x8 | A,,2 (C,E,) A,2 A, x | x8 | x4 A,2 x2 | x8 | x6 || x2 | x8 | x4 =A,2 x2 | x8 | %13
 (E,2 G,>F,E,D,) x2 | x8 | x8 | x8 | A,,2 x4 |] %18

